X:1
T:Praeparate corda vestra
T:Praeparate corda vestra
T:Jean Maillard
C:Jean Maillard
%%score [ 1 2 [ 3 4 ] ]
L:1/8
Q:1/4=120
M:2/2
K:C
V:1 treble nm="Soprano" snm="S"
V:2 treble nm="Alto" snm="A"
V:3 treble-8 nm="Tenor 1" snm="T 1"
V:4 treble-8 nm="Tenor 2" snm="T 2"
V:1
 A6 B2 | c2 A2 e4 | f6 e2 | c2 d2 e2 f2- | fe d4 c2 | d3 B cd e2- | e2 d2 e2 dc | B3 c d4 | %8
w: Prae- pa-|ra- te cor-|* da|ve- stra Do- *|* * mi- no,|Do- * * * *|||
 A2 e3 d d2- | d2 c2 d4 | z2 A4 B2 | c2 A2 e4 | f6 e2 | d4 c3 d | e2 d3 B c2 | d6 cB | c2 c2 d4 | %17
w: |* mi- no,|prae- pa-|ra- te cor|_ da|ve- * *|* stra _ _|Do- * *|* mi- no,|
 z2 c2 f2 f2 | e2 d2 c3 d | e2 d2 c2 e2- | e2 d4 c2 | d4 z4 | e4 f4- | f2 f2 e2 e2 | d8- | %25
w: et ser- vi-|te il- li _|_ _ _ so-||li|et li-|* be- ra- bit|vos|
 d4 z2 d2 | f3 e d2 c2 | d2 e2 f2 e2 | d8 | d6 c2 | d4 c4- | c4 e4- | e2 d2 e4 | c8 | z4 d4- | %35
w: _ de|ma- ni- bus in-|i- mi- co- rum|ve-|stro- *||||rum.|Con-|
 d2 d2 f2 f2 | e2 e2 d4- | d2 cB c4- | c8 | z8 | z8 | e4 e2 e2 | f4 e2 f2- | f2 ed c2 AB | %44
w: * ver- ti- mi-|ni ad e-|* * * um|_|||in to- to|cor- de ve-||
 cd e3 d d2- | d2 c2 d4- | d4 A4 | z4 z2 d2- | d2 d2 c2 c2 | d4 e3 d/c/ | B2 e4 d2 | c2 B2 c4 | %52
w: ||* stro|et|_ au- fer- te|De- os _ _|_ a- li-|e- * *|
 A2 c4 B2 | A8- | A8 | z4 d4 | f6 e2 | c2 d2 c3 d | e2 d2 c2 e2- | e2 d2 c3 B/A/ | G2 B4 A2- | %61
w: |nos|_|de|me- di-|o ve- * *||||
 A2 G2 A4- | A4 z4 | e4 f4- | f2 f2 e2 e2 | d8- | d4 z2 d2 | f3 e d2 c2 | d2 e2 f2 e2 | d8 | %70
w: * * stri|_|et li-|* be- ra- bit|vos|_ de|ma- ni- bus in-|i- mi- co- rum|ve-|
 d6 c2 | d3 c/B/ c2 d2- | dc A4 c2 | B4 A4- | A4 z4 | z2 A2 c3 B | A2 G2 A2 B2 | c2 B3 A A2- | %78
w: stro- *|||* rum,|_|de ma- ni-|bus in- i- mi-|co- rum ve- stro-|
 A2 G2 A4- | A2 F3 G A2- |"^#" A2 G2 A4- | A8- | A8- | A8- | A8 |] %85
w: ||* * rum.|_||||
V:2
 z8 | z8 | D6 E2 | F2 D2 A4 |"^b" B6 A2 | F2 G2 A3 B | c2 B3 A A2- | A2 G2 F2 A2- | A2 G2 A4- | %9
w: ||Prae- pa-|ra- te cor-|* da|ve- stra Do- *|||* * mi-|
 A4 D4 | z8 | z8 | z2 D4 E2 | F2 D2 A4 |"^b" B6 A2 | F2 G2 A2 A2 | E4 z4 | z2 A2 A2 A2 | G2 F2 E4 | %19
w: * no,|||prae- pa-|ra- te cor-|* da|ve- stra Do- mi-|no,|et ser- vi-|te il- li,|
 z2 A2 A2 A2 | G2 F2 E2 F2- | FEDC B,C D2- | D2 C2 D4- | D4 A4 |"^b""^b" B6 B2 | %25
w: et ser- vi-|te il- li so-||* * li,|_ et|li- be-|
"^b""^b" A2 GA B2 B2 | A8- | A4 z2 G2 |"^b" B3 A G2 F2 |"^b" G2 A2 B2 A2- | A2 G2 A3 G/F/ | %31
w: ra- * * * bit|vos|_ de|ma- ni- bus in-|i- mi- co- rum|_ ve- stro- * *|
 E2 A,B, CDEF |"^#" G2 A4 G2 | A8 | F6 F2 | G2 G2 A4- | A4 G2 G2 | A8- | A4 z2 C2 | D2 D2 F4 | %40
w: ||rum.|Con- ver-|ti- mi- ni|_ ad e-|um|_ in|to- to cor-|
 E2 F4 ED | EA, D4 C2 | D4 A4- | A8 | z2 A2 A2 G2 | A4 F2 G2 | D4 z4 | z2 A4 A2 | F2 G2 A4 | %49
w: de ve- * *||* stro,|_|in to- to|cor- de ve-|stro,|et au-|fer- te De-|
 F2 G4 C2 | G3 F GE A2- | A2 G2 A3 B | c2 A4 GF | E4 F4 | z8 |"^b" A4 B4- | B2 A2 F2 G2 | A6 G2- | %58
w: os a- li-|e- * nos, _ a-|* li- e- *||* nos||de me-|* di- o ve-||
 GF/E/FG A4 | G2 F2 E4 | C2 G4 F2 | E4 C2 F2- | F2 ED EA, D2- | D2 C2 D4- | D4 A4 |"^b""^b" B6 B2 | %66
w: |* * stri,|de me- di-|o ve- *||* * stri|_ et|li- be-|
"^b""^b" A3 G/A/ B2 B2 | A8- | A4 z2 G2 |"^b" B3 A G2 F2 |"^b" G2 A2 B2 A2 | A2 G2 A4- | A4 z4 | %73
w: ra- * * * bit|vos|_ de|ma- ni- bus in-|i- mi- o- rum|ve- stro- rum,|_|
 z4 z2 D2 | F2 E2 DEFG | A2 A,2 A,B,CD | E2 CD EF G2 | F2 D2 E2 F2- | F2 ED C2 D2 | A,6 C2 | %80
w: de|ma- ni- bus _ _ _|_ in- i- * * *|mi- * * * * co-|rum ve- stro- *|||
 B,4 A,4 | z2 E2 F3 E | D2 C2 D2 E2 | F2 D2 F2 F2 | E8 |] %85
w: * rum,|de ma- ni-|bus in- i- mi-|co- rum ve- stro-|rum.|
V:3
 z8 | z8 | z8 | z8 | z8 | z4 A4- | A2 B2 c2 A2 | e4 f4- | f2 e2 c2 d2 | e2 f3 e d2- | %10
w: |||||Prae-|* pa- ra- te|cor- *|* da ve- stra|Do- * * *|
 d2 c2 f2 e2- | ed d4 c2 | d3 e fg a2- | ad g4 f2 | g4 e4 | d4 z2 e2 | a2 a2 g2 f2 | e4 z4 | %18
w: ||||* mi-|no, et-|ser- vi- te il-|li,|
 z2 a2 a2 a2 | g2 f2 e2 c2- | c2 A2 B2 c2 | A2 B3 A A2- | A2 G2 A4 | z4 z2 e2 | f2 g2 d2 g2- | %25
w: et ser- vi-|te il- li so-|||* * li,|et|li- be- ra- *|
 g2 f2 g4 | z2 d2 f3 e | d2 c2 d2 e2 | g4 d3 c | de f2 d2 f2- | f2 ed e2 AB | cd e3 d c2 | %32
w: * bit vos|de ma- ni-|bus in- i- mi-|co- rum _|_ _ _ ve- stro-|||
 B2 A2 B4 | A8 | A6 A2 | B2 B2 c2 d2- | d2 c2 d4 | z2 e2 e2 e2 | f4 e2 f2- | f2 ed c2 d2- | %40
w: |rum.|Con- ver-|ti- mi- ni ad-|* e- um|in to- to|cor- de ve-||
 d2 c2 A2 c2- | cB A4 G2 | A3 B c2 d2- | d2 cB ABcd | e2 c2 d4 | e4 d3 c | de f4 ed | e2 f3 edc | %48
w: ||||||||
 d4 e4 | z4 z2 e2- | e2 e2 c2 d2 | e4 ABcd | e2 f3 e d2- | d2 c2 defd | e2 f4 ed | e2 f2 g4 | %56
w: * stro,|et|_ au- fer- te|De- os _ _ _|_ a- * li-|* e- * * * *|||
 d4 z4 | z8 | z2 d2 f2 e2 | c2 d2 ABcd | ec d4 c2 | B4 A3 B | cd c3 B A2- | A2 G2 A4 | z4 z2 e2 | %65
w: nos||de me- di-|o ve- * * * *||||* * stri|et|
 f2 g2 d2 g2- | g2 f2 g4 | z2 d2 f3 e | d2 c2 d2 e2 | g4 d3 c | de f2 d2 f2- | f2 ed e2 f2 | %72
w: li- be- ra- *|* bit vos|de ma- ni|bus in- i- mi-|co- rum _|_ _ _ ve- stro-||
 d3 e fg a2- | a2 g2 e2 f2 | d2 e2 f2 d2 | e8- | e8 | z8 | z2 d2 f3 e | d2 c2 d2 e2 | f2 e3 d d2- | %81
w: |||rum,|_||de ma- ni-|bus in- i- mi-|co- rum _ _|
"^#" d2 c2 d2 f2- | f2 e2 f2 e2 | d8 |"^#" c8 |] %85
w: _ ve- stro- *|||rum.|
V:4
 z8 | z8 | z8 | z8 | z8 | z8 | z8 | z4 D4- | D2 E2 F2 D2 |"^b" A4 B4- | B2 A2 F2 G2 | A2 GF E2 E2 | %12
w: |||||||Prae-|* pa- ra- te|cor- *|* da ve- stra|Do- * * * mi-|
 D2 d4 c2 | d2 cB A4 | G6 A2 |"^b" B4 A4- | A4 z2 D2 | A2 A2 FGAB | c2 d2 A3 B | c2 d2 A3 G/F/ | %20
w: no, [Do- *|||mi- no]|_ et|ser- vi- te _ _ _|_ _ il- *|* li so- * *|
 E2 F2 G2 A2 | F2 G3 FED | E4 D4- | D2 d4 c2 |"^b" d2 G3 ABc | d4 G4 | z8 | z8 |"^b" z2 G2 B3 A | %29
w: ||* li,|_ il- *|li so- * * *|* li,|||de ma- ni-|
 G2 F2 G2 A2 |"^b" B4 A4- | A2 c3 B A2 | G2 F2 E4 | A4 z4 | D6 D2 | G2 G2 F2 D2 |"^b" A4 B4 | A8 | %38
w: bus in- i- mi-|co- rum|_ ve- * *|stro- * *|rum.|Con- ver-|ti- mi- ni ad|e- *|um|
 z2 A2 A2 A2 |"^b" B4 A2 D2 | A4 F2 A2- | A2 GF E4 | D4 z4 | z4 z2 A2 |"^b" A2 A2 B4 | A4 D2 GA | %46
w: in to- to|cor- de ve-|||stro,|in-|to- to cor-|de ve- * *|
 Bc d4 cB | c2 d3 cBA | B4 A4 | z8 | z8 | z4 z2 A2- | A2 B2 F2 G2 | A4 D2 d2 | c2 d4 cB | %55
w: ||* stro,|||et|_ au- fer- te|De- os a-|li- e- * *|
 c2 d2 G4 | z8 | z2 d2 f2 e2 | c2 d2 A4 | z4 z2 A2 | c2 B2 G2 A2 | E4 F3 G | AB A4 GF | E4 D4- | %64
w: * * nos||de me- di-|o ve- stri,|de|me- di- o ve-|||* stri,|
 D2 d4 c2 |"^b" d2 G3 ABc | d4 G4 | z8 | z8 |"^b" z2 G2 B3 A | G2 F2 G2 A2 |"^b" B4 A2 d2 | %72
w: _ ve- *||* stri|||de ma- ni-|bus in- i- mi-|co- rum, de|
 f3 e d2 c2 | d2 e2 c2 d2- |"^b" d2 c2 B4 | A4 z2 A2 | c3 B A2 G2 | A2 B2 c2 A2 | B2 B2 A2 D2 | %79
w: ma- ni- bus in-|i- mi- co- rum|_ ve- stro-|rum, de|ma- ni- bus in-|i- mi- co- rum|ve- stro- rum, de|
 F3 E D2 C2 | D2 E2 F2 D2 | A4 D3 E | FG A2 D2 C2 | D8 | A8 |] %85
w: ma- ni- bus in-|i- mi- co- rum|ve- stro- *|||rum.|

